X: 26064
T: McCracken's
R: hornpipe
M: 4/4
K: Dmajor
|:F>G|(3ABA F>D A>dd>e|d>fe>d c>A (3ABc|B>AG>B (3ABc d2|E2 (3EFG A>FE>F|
A,2 (3ef^g a2A2|B>AB>c d2e2|d>fe>d c>A (3ABc|d2f2 d2:|
|:f>g|a>af>a f>ed>c|B>cB>c A2a2|g>ag>f g>fe>d|e2 (3ef^g a2A2|
(3aba (3gfe d>ef>e|B>AB>c d2e2|d>fe>d c>A (3ABc|d2f2 d2:|

